!!!!SEGMENT: pl-kk--kk-i-8--014_anonim--salve-virgo-nobilis.krn
!!!cenid: 16xx:1155
!!!COM: Anonim
!!!COM-rismID: pe30004985
!!!CDT:
!!!CNT:
!!!OTL: Salve Virgo nobilis
!!!PDT:
!!!AGN: Sacred
!!!SMS-siglum: PL-Kk
!!!SMS-shelfmark: Kk.I.8
!!!SMS-shelfwork: 014 W
!!!SMS-variant:
!!!SMS-altvar:
!!!NIFC-rismSourceID: 1001148762
!!!NIFC-islandoraID: pl-kk:2296
!!!URL-pdf-islandora: https://repozytorium.nifc.pl/islandora/object/pl-kk%3A2296/datastream/PDF/view
!!!URL-scan: https://polish.musicsources.pl/pl/lokalizacje/galeria/rekopisy/6141 @EN{Scan on Polish Music Herritage in Open Access Website} @PL{Skany w portalu Dziedzictwo Muzyki Polskiej w otwartym dostępie}
!!!ONB-nifc: UWAGA: A (skan 0009), T1 (0033), T2 (0056), B (0079). Następny utwór: Ego dormio et cor meum
!!!AIN: 1 alto 1 bass 2 tenor
!!!key:
**kern	**text	**kern	**text	**kern	**text	**kern	**text
*part4	*part4	*part3	*part3	*part2	*part2	*part1	*part1
*staff4	*staff4	*staff3	*staff3	*staff2	*staff2	*staff1	*staff1
*Ibass	*	*Itenor	*	*Itenor	*	*Ialto	*
*I"BASSVS.	*	*I"TENOR 2dus.	*	*I"Tenore 1mo	*	*I"alto.	*
*I'B	*	*I'T 2	*	*I'T 1	*	*I'A	*
*clefF4	*	*clefC4	*	*clefC4	*	*clefC3	*
*k[]	*	*k[]	*	*k[]	*	*k[]	*
*C:	*	*C:	*	*C:	*	*C:	*
*M3/1	*	*M3/1	*	*M3/1	*	*M3/1	*
=1	=1	=1	=1	=1	=1	=1	=1
!	!	!	!	!	!	!LO:TX:a:t=P:problem= inicjał S przed kluczem	!
!	!	!	!	!	!	!LO:TX:t=P:problem=♯ above	!
!LO:TX:t=P:problem=all\right&colon; global	!	!LO:TX:t=P:problem=all\right&colon; global	!	!LO:TX:t=P:problem=all\right&colon; global	!	!LO:TX:t=P:problem=utwór zapisany w 3/1, 4/4 ze zwykłymi kreskami taktowymi [konsultowano z E.Z.]	!
!	!	!	!	!	!	!LO:TX:t=P:problem=all\right&colon; global	!
0D	Sal-	0A	Sal-	0d	Sal-	0f#X	Sal-
1D	-ue	1A	-ue	1d	-ue	1f#	-ve
=2	=2	=2	=2	=2	=2	=2	=2
*lig	*	*lig	*	*	*	*	*
1G	Vir-	1B	Vir-	0d	Vir-	0d	Vir-
1F	.	1A	.	.	.	.	.
*Xlig	*	*Xlig	*	*	*	*	*
1E	-go	1G	-go	1c#X	-go	1e	-go
=3	=3	=3	=3	=3	=3	=3	=3
0D	no-	0A	no-	0d	no-	0f	no-
1D	-bi-	1A	-bi-	1d	-bi-	1f	-bi-
=4	=4	=4	=4	=4	=4	=4	=4
!	!	!	!	!LO:N:acc=-	!	!	!
1AA,<	-lis	1A	-lis	1cn	-lis	1e	-lis
1A	Ma-	1A	Ma-	1c	Ma-	1e	Ma-
!	!	!	!	!LO:SIC:v:s=1B-	!	!	!
1G	-ter	1B-X	-ter	1B	-ter	1e	-ter
=5	=5	=5	=5	=5	=5	=5	=5
1.F	il-	1.c	il-	1.A	il-	0.f	il-
*	*	*2\right	*	*2\right	*	*	*
2GG/	.	2B\	.	2B\	.	.	.
1AA	.	1A	.	1c	.	.	.
=6	=6	=6	=6	=6	=6	=6-	=6-
1BB-X	-li-	1G	-li-	1d	-li-	1f	-li-
0C	-ba-	0G	-ba-	0c	-ba-	(>1.f	-ba-
.	.	.	.	.	.	2e\)	-ta
=7	=7	=7	=7	=7	=7	=7	=7
0F	-ta	0A	-ta	0c	-ta	0f	.
1F	Re-	1A	Re-	1c	Re-	1f	Re-
=8	=8	=8	=8	=8	=8	=8	=8
1F	-gi-	1A	-gi-	1c	-gi-	1f	-gi-
!	!	!LO:N:acc=#	!	!	!	!	!
1F	-na	1Bn	-na	1d	-na	1a	-na
1E	cle-	1c	cle-	1e	cle-	1g	Cle-
=9	=9	=9	=9	=9	=9	=9	=9
0D	-men-	0d	-men-	0c	-men-	0f	-men-
1D	-ti-	1d	-ti-	1B	-ti-	1f	-ti-
!LO:LB:g=original	!	!	!	!	!	!	!
=10	=10	=10	=10	=10	=10	=10	=10
*	*	*custos:G	*	*	*	*	*
1C	-ae	1G	-ae	1c	-ae	1e	-ae
!	!	!LO:LB:g=original	!	!	!	!	!
1C	stel-	1G	Stel-	1c	stel-	1g	Stel-
!	!	!	!	!	!	!LO:TX:t=P:problem=♯ above	!
1BB	-lis	1B	-lis	1d	-lis	1g#X	-lis
!	!	!	!	!LO:LB:g=original	!	!LO:LB:g=original	!
=11	=11	=11	=11	=11	=11	=11	=11
*lig	*	*lig	*	*	*	*	*
1AA	co-	1c	co-	1c	Co-	0a	Co-
1BB	.	1d	.	1B	.	.	.
1C	.	1e	.	1A	.	1a	-ro-
*Xlig	*	*Xlig	*	*	*	*	*
=12	=12	=12	=12	=12	=12	=12	=12
1D	-ro-	1f	-ro-	1d	-ro-	0a	-na-
0E	-na-	0e	-na-	0B	-na-	.	.
!	!	!	!	!	!	!LO:TX:t=P:problem=♯ above	!
.	.	.	.	.	.	1g#X	.
=13	=13	=13	=13	=13	=13	=13	=13
1AA	-ta	1e	-ta	1c	-ta	1a	-ta
1AA	su-	1e	su-	1c	su-	1a	Su-
!	!	!	!	!	!	!LO:SIC:v:l:s=-pra	!
1BB	-pra	1d	-pra	1d	-pra	1g	-per
=14	=14	=14	=14	=14	=14	=14	=14
*	*	*	*	*lig	*	*	*
0C	om-	0c	om-	1e	o-	0g	o-
.	.	.	.	1d	.	.	.
*	*	*	*	*Xlig	*	*	*
1F	-nes	1A	-nes	1c	-mnes	2f\	mnes
.	.	.	.	.	.	2e\	.
=15	=15	=15	=15	=15	=15	=15	=15
1.G	An-	1.B	An-	1.B	An-	1.d	an-
*2\right	*	*	*	*	*	*	*
2G\	-ge-	2B\	-ge-	2B\	-ge-	2d\	ge-
1G	-los	1B	-los	1B	-los	1d	-los
=16	=16	=16	=16	=16	=16	=16	=16
1E	pu-	1c	pu-	1e	pu-	1g	pu-
1E	-ra	1c	-ra	1e	.	1g	-ra
1E	im-	1c	im-	1e	-ra	1g	im-
=17	=17	=17	=17	=17	=17	=17	=17
*col	*	*	*	*	*	*	*
0F	-ma-	0c	-ma-	(<1c	im-	0f	-ma-
.	.	.	.	1d	-ma-	.	.
!	!	!	!	!	!	!LO:SIC:v:s=1g	!
0C	-cu-	1c	-cu-	1e)	.	1f	-cu-
=18-	=18-	=18	=18	=18	=18	=18	=18
*	*	*lig	*	*	*	*	*
.	.	1c	-la-	1c	-cu-	1e	-la-
0G	-la-	1d	.	1.c	-la-	1.d	-ta
.	.	1G	.	.	.	.	.
.	.	.	.	2B\	.	2d\	at-
*Xcol	*	*Xlig	*	*	*	*	*
=19	=19	=19	=19	=19	=19	=19	=19
0C	ta	0G	-ta	0c	-ta	0e	-q(ue)
*	*	*custos:F	*	*	*	*	*
1C	at-	1G	at-	1c	at-	1e	ad
!LO:LB:g=original	!	!LO:LB:g=original	!	!	!	!	!
=20	=20	=20	=20	=20	=20	=20	=20
*	*	*	*	*	*	*lig	*
0D	-q(ue)	0F	-q(ue)	(<1A	-q(ue)	1f	.
.	.	.	.	1d)	.	1g	.
*	*	*	*	*	*	*Xlig	*
1AA	ad	1c	ad	1e	ad	1a	.
!	!	!	!	!LO:LB:g=original	!	!LO:LB:g=original	!
=21	=21	=21	=21	=21	=21	=21	=21
0E	Re-	0B	Re-	0e	Re-	0g	Re-
1F	-gis	1A	-gis	1c	-gis	1a	-gis
=22	=22	=22	=22	=22	=22	=22	=22
1.E	dex-	1.B	dex-	1.e	dex-	1.g#X	dex-
2E\	-te-	2B\	-te-	2e\	-te-	2g#\	-te-
1E	-ram	1B	-ram	1e	-ram	1g#	-ra(m)
=23	=23	=23	=23	=23	=23	=23	=23
!	!	!	!	!	!	!LO:SIC:v:s=1g#	!
1E	ſtans	1B	.	1e	ſtans	1g	ſtanſ
1C#X	.	1A	.	1e	ve-	1a	Ve-
1C#	ve-	1A	ſtans	1e	-ſte	1a	-ſte
=24	=24	=24	=24	=24	=24	=24	=24
*	*	*lig	*	*col	*	*	*
0D	-ſte	1A	Ve-	0d	in-	(>1f	in-
.	.	1B	-ſte	.	.	1g)	.
[<1AA	in-	1c	in-	0c	au-	1a	-au-
*	*	*Xlig	*	*	*	*	*
=25	=25	=25	=25	=25-	=25-	=25	=25
1AA]	-au-	1e	-au-	.	.	1a	-ra-
0E	-ra-	0e	-ra-	0B	-ra-	1.a	.
!	!	!	!	!	!	!LO:SIC:v:s=2g#	!
.	.	.	.	.	.	2g\	-ta.
*	*	*	*	*Xcol	*	*	*
=26	=26	=26	=26	=26	=26	=26	=26
0AA	-ta	0e	-ta	0c#X	-ta	0a	ſtanſ
1F#X	stans	1d	stans	1A	ſtans	1a	.
=27	=27	=27	=27	=27	=27	=27	=27
1G	Ve-	1d	Ve-	1B	ve-	1g	ve-
1G	-ſte	1d	-ſte	1B	-ſte	1g	-ſte
*	*ij	*	*ij	*	*ij	*	*ij
1E	stans	1e	stans	1c	ſtans	1g	ſtans
=28	=28	=28	=28	=28	=28	=28	=28
1.F	Ve-	1.c	Ve-	1.A	ve-	1.f	ve-
2E\	-ſte	2c\	-ſte	2A\	-ſte	2g\	-ſte
*	*Xij	*	*Xij	*	*Xij	*	*Xij
1D	in-	1d	in-	1d	in-	1f	in-
=29	=29	=29	=29	=29	=29	=29	=29
1D	-au-	1A	-au-	1d	-au-	1f	-au-
*	*	*	*	*lig	*	*	*
0AA	-ra-	0A	-ra-	1d	-ra-	0e	-ra-
!	!	!	!	!LO:TX:t=P:problem=♯ below	!	!	!
.	.	.	.	1c#X	.	.	.
*	*	*	*	*Xlig	*	*	*
=30-	=30-	=30-	=30-	=30	=30	=30-	=30-
!LO:TX:t=P:problem=w źródle pojedyncza kreska taktowa; pozostawiono podwójną, ponieważ w przeciwnym razie nie pokazywałoby się oznaczenie metryczne	!	!	!	!LO:TX:t=P:problem=w źródle pojedyncza kreska taktowa; pozostawiono podwójną, ponieważ w przeciwnym razie nie pokazywałoby się oznaczenie metryczne	!	!	!
0.D	-ta	0.Al;<	-ta	0.d;<	-ta.	0.f#Xl;;	-ta
!LO:LB:g=original	!	!LO:LB:g=original	!	!LO:LB:g=original	!	!LO:LB:g=original	!
=31||	=31||	=31||	=31||	=31||	=31||	=31||	=31||
*M4/4	*	*M4/4	*	*M4/4	*	*M4/4	*
*met(c)	*	*met(c)	*	*met(c)	*	*met(c|)	*
4r	.	4r	.	4rc	.	4r	.
2D/	Per	2A/	Per	2d\	Per	2f\	Per
4D/	te	4A/	te	4d\	te	4f\	te
=32	=32	=32	=32	=32	=32	=32	=32
4C#X/	Ma-	4A/	Ma-	4e\	Ma-	4e\	M(a-
4C#/	-ter	4A/	-ter	4e\	-ter	4a\	-te)r
4.D/	gra-	4.A/	gra-	4.d\	gra-	4.f\	gra-
8D/	-ti-	8A/	-ti-	8d\	-ti-	8f\	-(ti)-
=33	=33	=33	=33	=33	=33	=33	=33
2AA/	-ae	2A/	-ae	2c#X\	-ae	2e\	-ae
4r	.	4r	.	4r	.	4r	.
!	!	!	!	!LO:N:acc=-	!	!	!
*	*ij	*	*ij	*	*ij	*	*ij
2F\	Per	2A/	Per	2cn\	Per	2f\	Per
=34-	=34-	=34-	=34-	=34-	=34-	=34-	=34-
.	.	.	.	.	.	.	.
4F\	te	4A/	te	4c\	te	4f\	te
4E\	Ma-	4G/	Ma-	4c\	Ma-	4g\	M(a-
4E\	-ter	4G/	-ter	4c\	-ter	4g\	-te)r
=35	=35	=35	=35	=35	=35	=35	=35
2.F\	gra-	2.A/	gra-	2.c\	gra-	4g\	gra-
.	.	.	.	.	.	8f\L	.
.	.	.	.	.	.	8e\J	.
.	.	.	.	.	.	4.f\	.
4F\	-ti-	4A/	-ti-	4c\	-ti-	.	.
.	.	.	.	.	.	8f\	-(ti)-
=36	=36	=36	=36	=36	=36	=36	=36
4C/	-ae	4G/	-ae	2c\	-ae	4e\	-ae
*	*Xij	*	*Xij	*	*Xij	*	*Xij
4.C/	dul-	8G/	dul-	.	.	4.e\	dul-
.	.	8E/	-cis	.	.	.	.
.	.	4.A/	ſpes	4.c\	dul-	.	.
8AA/	-cis	.	.	.	.	8c\	-cis
!LO:TX:a:t=P:problem=kropka za kreską taktową	!	!	!	!	!	!LO:TX:a:t=P:problem=kropka za kreską taktową	!
4.D/	ſpes	.	.	.	.	4.f\	ſpes
.	.	8F/	re-	8A\	-cis	.	.
=37	=37	=37	=37	=37	=37	=37	=37
.	.	8B/	-o-	4.d\	spes	.	.
8BB/	re-	8B/	-ru(m)	.	.	8d\	re-
8E/	-o-	8.B/	dul-	.	.	8g\	-o-
8E/	-ru(m)	.	.	8B\	re-	8g\	-(ru)m
.	.	16G/	.	.	.	.	.
*	*ij	*	*	*	*	*	*
8.E/	dul-	4.c\	-cis	8e\	-o-	8.g\	dul-
.	.	.	.	8e\	-rum	.	.
16C/	-cis	.	.	.	.	16e\	-cis
!LO:TX:a:t=P:problem=kropka za kreską taktową	!	!	!	!	!	!LO:TX:a:t=P:problem=kropka za kreską taktową	!
4.F\	ſpes	.	.	8c\	dul-	4.a	Spes
*	*Xij	*	*	*	*	*	*
.	.	8A\	spes	8c\	-cis	.	.
=38	=38	=38	=38	=38	=38	=38	=38
!LO:N:xstem:cue	!	!	!	!	!	!	!
.	.	8d\L	re-	4.d\	Spes	.	.
8D\	re-	8c\J	.	.	.	8f\	re-
8G\L	-o-	8B\L	-o-	.	.	8d\L	-o-
*custos:E	*	*custos:G	*	*custos:e	*	*	*
8F\J	.	8A\J	.	8d\	re-	16e\L	.
.	.	.	.	.	.	16f\JJ	.
!LO:LB:g=original	!	!LO:LB:g=original	!	!LO:LB:g=original	!	!LO:LB:g=original	!
8E\L	.	8G/L	.	8e\L	-o-	8g\L	.
16F\L	.	16A/L	.	8d\J	.	8f\J	.
16G\JJ	.	16B/JJ	.	.	.	.	.
8A\L	.	8c\L	.	2c\	.	8e\L	.
8E\J	.	16d\L	.	.	.	16f\L	.
.	.	16e\JJ	.	.	.	16g\JJ	.
=39	=39	=39	=39	=39-	=39-	=39	=39
4F\	.	8d\L	.	.	.	8f\	.
.	.	8c\J	.	.	.	8e\	.
4G\	.	4G/	.	4B\	.	4d\	.
2C/	-rum	2G/	-rum	2c\	-rum	4e\	-ru(m)
.	.	.	.	.	.	4e\	re-
=40	=40	=40	=40	=40	=40	=40	=40
4r	.	0r	.	2r	.	8g\	-ful-
.	.	.	.	.	.	8g\	-genſ
4E\	re-	.	.	.	.	8f\	.
.	.	.	.	.	.	8e\	Stel-
8.G\	-ful-	.	.	4r	.	8d\	-la
.	.	.	.	.	.	8d\	Ma-
16G\	-gens	.	.	.	.	.	.
8F\	stel-	.	.	4B\	re-	8d\	-ris
8E\	-la	.	.	.	.	8d\	.
=41	=41	=41-	=41-	=41	=41	=41	=41
8D\	ma-	.	.	8.d\	-ful-	4f\	por-
8D\	-ris	.	.	.	.	.	.
.	.	.	.	16d\	-gens	.	.
8D\	por-	.	.	8c\	Stel-	4g\	-t(us)
8D\	-t(us)	.	.	8B\	-la	.	.
4F\	nau-	.	.	8A\	ma-	4a\	.
.	.	.	.	8A\	-ris	.	.
4G\	.	.	.	8B\	por-	8g\L	nau-
.	.	.	.	8B\	-t(us)	8f\J	.
=42	=42	=42-	=42-	=42	=42	=42	=42
4A\	-fra-	2r	.	4c#X\	nau-	4.e\	-fra-
4F\	.	.	.	4d\	-fra-	.	.
.	.	.	.	.	.	8f\	.
4G\	-go-	4rc	.	4.d\	-go-	[>8g\	-go-
.	.	.	.	.	.	8g\]	.
4A\	.	4e\	re-	.	.	8f\L	.
.	.	.	.	8c#X\	.	8e\J	.
=43	=43	=43	=43	=43	=43	=43	=43
4D/	-rum	8.f\	-ful-	4d\	-rum	4d\	-ru(m)
.	.	16f\	-gens	.	.	.	.
4D/	re-	8e\	stel-	4rc	.	4r	.
.	.	8d\	-la	.	.	.	.
8.F\	-ful-	8c\	ma-	4r	.	2r	.
.	.	8c\	-ris	.	.	.	.
16F\	-gens	.	.	.	.	.	.
8E\	stel-	8c\	.	4A\	re-	.	.
8D\	-la	8c\	por-	.	.	.	.
=44	=44	=44	=44	=44	=44	=44	=44
8C/	ma-	4e\	-tus	8.c\	-ful-	1r	.
8C/	-ris	.	.	.	.	.	.
.	.	.	.	16c\	-gens	.	.
!LO:LB:g=original	!	!	!	!	!	!	!
8C/	por-	4f\	nau-	8B\	Stel-	.	.
*	*	*	*	*custos:G	*	*	*
8C/	-t(us)	.	.	8A\	-la	.	.
!	!	!	!	!LO:LB:g=original	!	!	!
4E\	nau-	4g\	.	8G/	ma-	.	.
.	.	.	.	8G/	-ris	.	.
4F#X\	-fra-	8f\L	-fra-	4r	.	.	.
.	.	8e\J	-go-	.	.	.	.
=45	=45	=45	=45	=45	=45	=45-	=45-
(<2G\	-go-	2d\	-rum	2r	.	4r	.
.	.	.	.	.	.	4d\	re-
2D/)	.	2d\	.	4r	.	8f\	-ful-
.	.	.	.	.	.	8f\	-genſ
*	*	*	*	*	*ij	*	*
.	.	.	.	4A\	re-	8e\	Stel-
.	.	.	.	.	.	8d\	-la
!	!	!	!	!	!	!LO:LB:g=original	!
=46	=46	=46	=46	=46	=46	=46	=46
4AA/	-rum	0r	.	8.c\	-ful-	8c/	Ma-
.	.	.	.	.	.	8c/	-ris
.	.	.	.	16c\	-gens	.	.
*	*ij	*	*	*	*	*	*
4AA/	re-	.	.	8B\	Stel-	8c/	por-
.	.	.	.	8A\	-la	8c/	-t(us)
!	!	!	!	!	!	!LO:N:vis=4	!
8.C/	-ful-	.	.	8G/	ma-	4.e\	na-
.	.	.	.	8G/	-ris	.	.
*	*	*	*	*	*Xij	*	*
16C/	-gens	.	.	.	.	.	.
8BB/	stel-	.	.	8G/	por-	.	.
8AA/	-la	.	.	8G/	-tus	8f\	-fra-
=47	=47	=47-	=47-	=47	=47	=47	=47
8GG/	ma-	.	.	4B\	nau-	4.g\	-go-
8GG/	-ris	.	.	.	.	.	.
8GG/	por-	.	.	4c\	.	.	.
8GG/	-t(us)	.	.	.	.	16f\LL	.
.	.	.	.	.	.	16e\JJ	.
4BB/	nau-	.	.	4.d\	-fra-	4d\	.
4C/	-fra-	.	.	.	.	4e\	.
.	.	.	.	16c\LL	-go-	.	.
.	.	.	.	16B\JJ	.	.	.
=48	=48	=48	=48	=48	=48	=48	=48
2D/	-go-	4r	.	4A\	.	2f\	.
*	*	*custos:c	*	*	*	*	*
.	.	4A\	re-	4A\	-rum	.	.
!	!	!LO:LB:g=original	!	!	!	!	!
2AA/	-rum	8.c\	-ful-	2r	.	4e\	-ru(m)
.	.	16c\	-gens	.	.	.	.
*	*Xij	*	*	*	*	*	*ij
.	.	8B\	stel-	.	.	4e\	re-
.	.	8A\	-la	.	.	.	.
=49	=49	=49	=49	=49	=49	=49	=49
4r	.	8G/	ma-	4r	.	8g\	-ful-
.	.	8G/	-ris	.	.	8g\	-genſ
*	*	*	*	*	*ij	*	*
4E\	re-	8G/	por-	4G/	re-	8f\	Stel-
.	.	8G/	-tus	.	.	8e\	-la
8G\	-ful-	4B\	.	8.B/	-ful-	8d\	Ma-
8G\	-gens	.	.	.	.	8d\	-ris
.	.	.	.	16B/	-gens	.	.
8F\	stel-	4c\	.	8A/	Stel-	8d\	por-
8E\	-la	.	.	8G/	-la	8e\	-t(us)
=50	=50	=50	=50	=50	=50	=50	=50
8D\	ma-	4d\	nau-	8F/	ma-	4f\	nau-
8D\	-ris	.	.	8F/	-ris	.	.
8E\	por-	8c\L	-fra-	8e\	por-	4g\	-fra-
*	*	*	*	*custos:c	*	*	*
8E\	-tus	8B\J	.	8d\	-tus	.	.
!LO:LB:g=original	!	!	!	!LO:LB:g=original	!	!	!
4F\	nau-	4A\	-go-	4c\	nau-	4a\	-go-
8E\L	-fra-	4B\	.	4d\	-fra-	8g\	.
8D\J	.	.	.	.	.	8f\	.
=51	=51	=51	=51	=51	=51	=51	=51
4C/	-go-	2.c\	.	4e\	-go-	8e\L	.
.	.	.	.	.	.	8f\J	.
4E/	.	.	.	8d\L	.	4g\	.
.	.	.	.	8c\J	.	.	.
4F\	.	.	.	2d\	.	8f\	.
.	.	.	.	.	.	8e\	.
4G\	.	4B\	.	.	.	4d\	.
!	!	!	!	!	!	!LO:LB:g=original	!
=52	=52	=52	=52	=52	=52	=52	=52
4C/	-rum	4c\	-rum	4c\	-rum	4e\	-ru(m)
*	*	*	*	*	*Xij	*	*Xij
4.A\	Pa-	4c\	pa-	4.c\	pa-	4.e\	pa-
.	.	4A\	-tens	.	.	.	.
8A\	-tens	.	.	8c\	-tens	8e\	-tens
8.G#X\	coe-	8B\	coe-	8B\	coe-	8e\	coe-
.	.	8B\	-li	8B\	-li	8e\	-li
16G#\	-li	.	.	.	.	.	.
=53	=53	=53	=53	=53	=53	=53	=53
4.A\	ia-	4.A/	ia-	4.c\	ia-	4.e\	ja-
8A\	-nu-	8A/	-nu-	8c\	-nu-	8e\	-nu-
2E\	-a	2G#X/	-a	2B\	-a	2e\	-a
=54	=54	=54	=54	=54	=54	=54	=54
4r	.	4r	.	4rc	.	4re	.
*	*ij	*	*	*	*ij	*	*ij
4.C/	Pa-	4.G/	pa-	4.e\	pa-	4.g\	pa-
8C/	-tens	8G/	-tens	8e\	-tens	8g\	-tens
!	!	!LO:PB:g=original	!	!	!	!	!
8BB/	coe-	8A/	coe-	8d\	coe-	8g\	coe-
8BB/	-li	8A/	-li	8d\	-li	8g\	-li
=55	=55	=55	=55	=55	=55	=55	=55
4.C/	ia-	4.G/	ia-	4.e\	ia-	4.g\	ja-
8C/	-nu-	8G/	-nu-	8e\	-nu-	8g\	-nu-
4G\	-a	4B\	-a	4d\	-a	4g\	-a
*	*Xij	*	*	*	*Xij	*	*Xij
!	!	!LO:TX:t=P:problem=nuta przekreślona	!	!	!	!	!
2E\	Sa-	2B\	Sa-	2e\	Sa-	2g\	Sa-
=56-	=56-	=56-	=56-	=56-	=56-	=56-	=56-
.	.	.	.	.	.	.	.
4E\	-lus	4B\	-lus	4e\	-lus	4g\	-l(us)
!	!	!	!	!	!	!LO:TX:a:t=P:problem=kropka za kreską taktową	!
4AA/	in-	4A/	in-	4c#X\	in-	2.a\	In-
4AA/	-fir-	4A/	-fir-	4c#\	-fir-	.	.
=57	=57	=57	=57	=57	=57	=57	=57
*custos:E	*	*	*	*	*	*	*
1BB	-mo-	4F#X/	-mo-	4d#X\	-mo-	.	.
.	.	8G/L	.	2e\	.	4g\	-fir-
.	.	8A/J	.	.	.	.	.
!	!	!	!	!	!	!LO:TX:t=P:problem=♯ above	!
.	.	2B\	.	.	.	2f#X\	-mo-
.	.	.	.	4d#X\	.	.	.
!LO:PB:g=original	!	!	!	!LO:PB:g=original	!	!	!
=58	=58	=58	=58	=58	=58	=58	=58
4E\	-rum	4B\	-rum	4e\	-rum	4e\	-ru(m)
8C/	Vi-	8c\	Vi-	8e\	Vi-	8g\	Vi-
8C/	-de-	8c\	-de-	8e\	-de-	8g\	-de-
4F\	-a-	4c\	-a-	4c\	-a-	4a\	-a-
4E\	-m(us)	4c\	-mus	4e\	-m(us)	4g\	-m(us)
=59	=59	=59	=59	=59	=59	=59	=59
4.G\	Tri-	4.c\	Tri-	4.d\	Tri-	4.g\	Tri-
8G\	-a-	8B\	-a-	8d\	-a-	8g\	-a-
4C/	-dem	2c\	-dem	4c\	-de(m)	4e\	-d(em)
*	*	*	*	*	*	*custos:d	*
4C/	in	.	.	4c\	.	4e\	in
!	!	!	!	!	!	!LO:PB:g=original	!
=60	=60	=60	=60	=60	=60	=60	=60
4G\	au-	2r	.	4B\	in	4d\	au-
8F\	-la	.	.	8B\	au-	8d\	-la
8E\	.	.	.	8c\	-la	8e\	San-
16F\LL	San-	4r	.	8A\L	San-	8c/L	-cto-
16E\	.	.	.	.	.	.	.
16F\	-cto-	.	.	16G\L	-cto-	16B/L	.
16G\JJ	.	.	.	16A\JJ	.	16c/JJ	.
8F\L	.	4A/	in	8B\L	.	8d\L	.
16E\L	.	.	.	16A\L	.	16c\L	.
16D\JJ	.	.	.	16B\JJ	.	16d\JJ	.
=61	=61	=61	=61	=61	=61	=61	=61
4C/	-rum	4G/	au-	16c\LL	.	16e\LL	.
.	.	.	.	16B\	.	16d\	.
.	.	.	.	16c\	.	16e\	.
.	.	.	.	16d\JJ	.	16f\JJ	.
*	*ij	*	*	*	*	*	*
8C/	Vi-	8F/	-la	8e\L	.	8g\L	.
8C/	-de-	8E/	San-	16f\L	.	16a\L	.
.	.	.	.	16e\JJ	.	16g\JJ	.
4F\	-a-	16F/LL	-cto-	4d\	.	4f\	.
.	.	16E/	.	.	.	.	.
.	.	16F/	.	.	.	.	.
.	.	16G/JJ	.	.	.	.	.
8F\	-m(us)	8A/L	.	8d\	-rum	8f\	-r(um)
8F\	Tri-	16G/L	.	8d\	.	8a\	In
.	.	16F/JJ	.	.	.	.	.
=62	=62	=62	=62	=62	=62	=62	=62
(>4G\	-a-	2E/	.	4.d\	San-	4g\	au-
4A\)	.	.	.	.	.	8f\	-la
.	.	.	.	8c#X\	-cto-	8e\	San-
!	!	!LO:LB:g=original	!	!	!	!	!
4D/	-dem	2D/	-rum	2d\	-ru(m)	16f\LL	-cto-
*	*Xij	*	*	*	*	*	*
.	.	.	.	.	.	16e\	.
.	.	.	.	.	.	16f\	.
.	.	.	.	.	.	16g\JJ	.
4D/	in	.	.	.	.	8f\L	.
.	.	.	.	.	.	16e\L	.
.	.	.	.	.	.	16d\JJ	.
=63	=63	=63	=63	=63	=63	=63	=63
4C/	au-	1rA	.	4rc	.	8e\L	.
.	.	.	.	.	.	16f\L	.
.	.	.	.	.	.	16g\JJ	.
*	*	*	*	*custos:d	*	*	*
8BB/	-la	.	.	4e\	in	2a\	.
8AA/	San-	.	.	.	.	.	.
!LO:LB:g=original	!	!	!	!LO:LB:g=original	!	!	!
2BB/	-cto-	.	.	4d\	au-	.	.
!	!	!	!	!	!	!LO:TX:t=P:problem=♯ above	!
.	.	.	.	8c\	-la	4g#X\	.
.	.	.	.	8B\	san-	.	.
=64	=64	=64-	=64-	=64	=64	=64	=64
4AA/	-rum	4r	.	16c\LL	-cto-	2a\	-ru(m)
.	.	.	.	16B\	.	.	.
.	.	.	.	16c\	.	.	.
.	.	.	.	16d\JJ	.	.	.
*	*ij	*	*ij	*	*	*	*
4A\	Vi-	4c\	in	8c\L	.	.	.
.	.	.	.	16B\L	.	.	.
.	.	.	.	16A\JJ	.	.	.
4G\	-de-	4B\	au-	4B\	.	2re	.
8F\	-a-	8A\	-la	8B\	-rum	.	.
8E\	-m(us)	8G\	San-	8c\	.	.	.
=65	=65	=65	=65	=65	=65	=65	=65
16F\LL	Tri-	16A/LL	-cto-	4.d\	San-	1r	.
16E\	.	16G/	.	.	.	.	.
16F\	.	16A/	.	.	.	.	.
16G\JJ	.	16B/JJ	.	.	.	.	.
8F\L	-a-	8A/L	.	.	.	.	.
16E\L	.	16G/L	.	16c\LL	-cto-	.	.
16D\JJ	.	16F/JJ	.	16d\JJ	.	.	.
!	!	!	!	!LO:TX:t=P:problem=skreślona cauda	!	!	!
4C/	.	8E/	.	2e\	.	.	.
.	.	8E/	-rum	.	.	.	.
*	*	*	*Xij	*	*	*	*
8C/	dem	4e\	in	.	.	.	.
*	*Xij	*	*	*	*	*	*
8C/	in	.	.	.	.	.	.
=66	=66	=66	=66	=66-	=66-	=66-	=66-
2D\	au-	4d\	au-	4A/	-rum	4re	.
.	.	8c\	-la	4r	.	4a\	In
.	.	8B\	San-	.	.	.	.
4.E\	.	16c\LL	-cto-	2r	.	4g\	au-
.	.	16B\	.	.	.	.	.
.	.	16c\	.	.	.	.	.
.	.	16d\JJ	.	.	.	.	.
.	.	8e\L	.	.	.	8f\	-la
8F\	.	16d\L	.	.	.	8e\	San-
.	.	16c\JJ	.	.	.	.	.
!	!	!	!	!	!	!LO:LB:g=original	!
=67	=67	=67	=67	=67	=67	=67	=67
4G\	-la	4B\	.	0r	.	16f\LL	-cto-
.	.	.	.	.	.	16e\	.
.	.	.	.	.	.	16f\	.
.	.	.	.	.	.	16g\JJ	.
8C/	San-	2c\	.	.	.	8f\L	.
8C/	-cto-	.	.	.	.	16e\L	.
.	.	.	.	.	.	16d\JJ	.
2G\	.	.	.	.	.	4c/	-ru(m)
.	.	4B\	.	.	.	8c/	.
*	*	*	*	*	*	*	*ij
.	.	.	.	.	.	8d\	In
=68	=68	=68	=68	=68-	=68-	=68	=68
4C/	-ru(m)	2c\	-rum	.	.	4e\	au-
4c\	in	.	.	.	.	8d\	-la
.	.	.	.	.	.	8c/	San-
4B\	au-	2r	.	.	.	16d\LL	-cto-
.	.	.	.	.	.	16c\	.
.	.	.	.	.	.	16d\	.
.	.	.	.	.	.	16e\JJ	.
8A\L	-la	.	.	.	.	8d\	.
8G\J	.	.	.	.	.	16c/LL	.
.	.	.	.	.	.	16B/JJ	.
=69	=69	=69	=69	=69-	=69-	=69	=69
16A\LL	San-	4r	.	1r	.	16c\LL	.
16G\	.	.	.	.	.	16B\	.
16A\	-cto-	.	.	.	.	16c\	.
16B\JJ	.	.	.	.	.	16d\JJ	.
*	*	*custos:B	*	*	*	*	*
8A\L	.	4c\	in	.	.	16e\LL	.
.	.	.	.	.	.	16d\	.
16G\L	.	.	.	.	.	16e\	.
*custos:E	*	*	*	*	*	*	*
16F\JJ	.	.	.	.	.	16f\JJ	.
!LO:LB:g=original	!	!LO:LB:g=original	!	!	!	!	!
4E\	.	4B\	au-	.	.	4g\	-ru(m)
*	*	*	*	*	*	*	*Xij
8E\	-rum	8A\	-la	.	.	8g\	San-
*	*ij	*	*	*	*	*	*
8E\	San-	8G\	San-	.	.	8g\	.
=70	=70	=70	=70	=70-	=70-	=70	=70
2F\	-cto-	16A/LL	-cto-	4r	.	1f	-cto-
.	.	16G/	.	.	.	.	.
.	.	16A/	.	.	.	.	.
.	.	16B/JJ	.	.	.	.	.
.	.	8A/L	.	4A/	in	.	.
.	.	8B/J	.	.	.	.	.
2C/	-rum	8c\L	.	4G/	au-	.	.
*	*Xij	*	*	*	*	*	*
.	.	8G\J	.	.	.	.	.
.	.	2c\	.	8F/	-la	.	.
.	.	.	.	8E/	san-	.	.
=71	=71	=71-	=71-	=71	=71	=71-	=71-
4rF	.	.	.	8D/L	-cto-	2e\	-ru(m)
.	.	.	.	8E/	.	.	.
4G\	in	4B\	.	8F/	.	.	.
.	.	.	.	8G/J	.	.	.
4F\	au-	2A/	.	8A\L	.	2r	.
.	.	.	.	16B\L	.	.	.
.	.	.	.	16c\JJ	.	.	.
8E\	-la	.	.	2d\	.	.	.
8D\	San-	.	.	.	.	.	.
=72	=72	=72	=72	=72-	=72-	=72	=72
2E\	-cto-	2G/	-rum	.	.	4re	.
*	*	*	*	*	*	*	*ij
.	.	.	.	4c#X\	.	4g\	In
2D/	-ru(m)	2r	.	4d\	-rum	4f\	au-
*	*	*	*	*custos:c	*	*	*
.	.	.	.	4d\	in	8e\	-la
.	.	.	.	.	.	8d\	San-
!	!	!	!	!LO:LB:g=original	!	!	!
=73	=73	=73	=73	=73	=73	=73	=73
4rF	.	4r	.	4c\	au-	16e\LL	-cto-
.	.	.	.	.	.	16f\	.
.	.	.	.	.	.	16d\	.
.	.	.	.	.	.	16e\JJ	.
!	!	!	!	!	!	!LO:LB:g=original	!
*	*ij	*	*ij	*	*	*	*
4A\	in	4c\	in	8B\	-la	16c\LL	.
.	.	.	.	.	.	16d\	.
.	.	.	.	8A\	San-	16e\	.
.	.	.	.	.	.	16f\JJ	.
4G\	au-	4B\	au-	8B\L	-cto-	4g\	.
.	.	.	.	16c\L	.	.	.
.	.	.	.	16d\J	.	.	.
8F\	-la	8A\	-la	8e\	.	4g\	-ru(m)
8E\	San-	8G\	San-	8d\J	.	.	.
=74	=74	=74	=74	=74	=74	=74	=74
2F\	-cto-	16A/LL	-cto-	8c\L	.	4re	.
.	.	16G/	.	.	.	.	.
.	.	16A/	.	8B\J	.	.	.
.	.	16B/JJ	.	.	.	.	.
.	.	8A/L	.	16A\LL	.	4a\	In
.	.	.	.	16B\	.	.	.
.	.	16G/L	.	16c\	.	.	.
.	.	16F/JJ	.	16d\JJ	.	.	.
2C/	-ru(m)	4E/	.	2e\	.	4g\	au-
.	.	4E/	-rum	.	.	8f\	-la
.	.	.	.	.	.	8e\	San-
=75	=75	=75	=75	=75	=75	=75	=75
4r	.	4r	.	2d\	-rum	16f\LL	-cto-
.	.	.	.	.	.	16e\	.
.	.	.	.	.	.	16f\	.
.	.	.	.	.	.	16g\JJ	.
4D/	in	4A/	in	.	.	8.f\L	.
.	.	.	.	.	.	16e\Jk	.
4G\	au-	4G/	au-	4rc	.	8d\L	.
.	.	.	.	.	.	8e\	.
*	*	*	*	*	*ij	*	*
8F\	-la	8A/	-la	4d\	in	16f\L	.
.	.	.	.	.	.	16a\	.
8F\	San-	8A/	San-	.	.	16g\	.
.	.	.	.	.	.	16f\JJ	.
=76	=76	=76	=76	=76	=76	=76	=76
2A\	-cto-	1A	-cto-	4c#X\	au-	1e	.
.	.	.	.	8d\	-la	.	.
.	.	.	.	8d\	San-	.	.
2AA/	.	.	.	4d\	-cto-	.	.
.	.	.	.	4c#X\	.	.	.
=77-	=77-	=77-	=77-	=77	=77	=77-	=77-
1GGl;;	-ru(m)	1Al;;	-rum	1dl;;	-rum	1f#X;;	-ru(m)
*	*Xij	*	*Xij	*	*Xij	*	*Xij
==	==	==	==	==	==	==	==
*-	*-	*-	*-	*-	*-	*-	*-
!!!system-decoration: [(s1,s2,s3,s4)]
!!!RDF**kern: > = above
!!!RDF**kern: < = below
!!!RDF**kern: l = terminal long
!!!EED: Antoni Szymański
!!!EEV: 2021-04-10
!!!ENC: Andrzej Kubiczek
!!!END: 2021-03-31
